X:1
T:Title
%%score ( 1 2 ) ( 3 4 )
L:1/8
Q:1/4=110
M:4/4
K:D
V:1 treble nm="Grand Piano, Staff"
V:2 treble 
V:3 bass nm="Choir Pad, Nutfield, 84.84.88.84"
V:4 bass 
V:1
 [DF]2 [DF]2 [DG]2 [DA]2 | [DB]2 [Gc]2 [Fd]2 [DA]2 | [DA]4 [DE]2 [CA]2 | [DF]8 | %4
w: By~William~Henry~Monk~(1823\-1889) * * *||||
 [DF]2 [DF]2 [DG]2 [DA]2 | [DB]2 [Gc]2 [Fd]2 [DA]2 | [DA]4 [DE]2 [CA]2 | [DF]8 | %8
w: ||||
 D2 D2 [CE]2 [DF]2 | [DG]2 [DF]2 [CE]2 D2 | [DF]2 [DF]2 [DG]2 [DA]2 | [B,B]2 [CA]2 G-[FG] F2 | %12
w: ||||
 [DG]2 [DA]2 [DB]2 [Ec]2 | [Fd]2 [DA]2 [EG]2 [DF]2 | [DA]4 [DE]2 [CF]2 | D8 |] %16
w: ||||
V:2
 x8 | x8 | x8 | x8 | x8 | x8 | x8 | x8 | x8 | x8 | x8 | z4 .E2 z2 | x8 | x8 | x8 | x8 |] %16
V:3
 [D,A,]2 [D,A,]2 [G,B,]2 [F,A,]2 | G,2 [E,G,]2 [D,A,]2 [F,A,]2 | A,3- [G,A,] A,2 [A,,A,]2 | %3
 [D,A,]8 | [D,A,]2 [D,A,]2 [G,B,]2 [F,A,]2 | G,2 [E,G,]2 [D,A,]2 [F,A,]2 | %6
 A,3- [G,A,] A,2 [A,,A,]2 | [D,A,]8 | [D,F,]2 [B,,F,]2 [A,,A,]2 [D,A,]2 | %9
 [B,,B,]2 [D,A,]2 [A,,G,]2 [D,F,]2 | [D,A,]2 [C,A,]2 [B,,G,]2 [A,,F,]2 | z4 B,2 z2 | %12
 [G,B,]2 [F,A,]2 G,2 [E,G,]2 | [D,A,]2 [F,A,]2 [C,A,]2 [D,A,]2 | A,4 z4 | [D,F,]8 |] %16
V:4
 x8 | x8 | F,4 z4 | x8 | x8 | x8 | F,4 z4 | x8 | x8 | x8 | x8 | [G,,G,]2 [A,,F,]2 B,,C, [D,A,]2 | %12
 x8 | x8 | F,3 G, A,2 [A,,A,]2 | x8 |] %16

